x-pack/solutions/security/packages/kbn-cloud-security-posture/graph/src/assets/icons/aws.svg

<svg width="24" height="24" viewBox="0 0 24 24" fill="none" xmlns="http://www.w3.org/2000/svg">
<path d="M6.76413 10.4088C6.76413 10.7007 6.79606 10.9373 6.85193 11.1108C6.91578 11.2844 6.9956 11.4737 7.10734 11.6788C7.14725 11.7419 7.16321 11.805 7.16321 11.8602C7.16321 11.9391 7.11532 12.018 7.01156 12.0968L6.50873 12.4281C6.43689 12.4755 6.36506 12.4991 6.30121 12.4991C6.22139 12.4991 6.14158 12.4597 6.06176 12.3887C5.95002 12.2704 5.85424 12.1442 5.77443 12.018C5.69461 11.8839 5.6148 11.734 5.527 11.5526C4.90445 12.2783 4.12226 12.6411 3.18044 12.6411C2.51 12.6411 1.97524 12.4518 1.58414 12.0732C1.19305 11.6946 0.993512 11.1897 0.993512 10.5587C0.993512 9.88818 1.23296 9.3439 1.71983 8.93372C2.2067 8.52354 2.8532 8.31845 3.6753 8.31845C3.94667 8.31845 4.22602 8.34212 4.52133 8.38156C4.81665 8.421 5.11995 8.4841 5.43921 8.55509V7.97926C5.43921 7.37977 5.3115 6.9617 5.06408 6.71717C4.80867 6.47264 4.37767 6.35432 3.76309 6.35432C3.48374 6.35432 3.19641 6.38587 2.90109 6.45686C2.60577 6.52786 2.31844 6.61462 2.03909 6.72506C1.91138 6.78027 1.81561 6.81183 1.75974 6.8276C1.70387 6.84338 1.66396 6.85127 1.63203 6.85127C1.52029 6.85127 1.46442 6.77239 1.46442 6.60674V6.22022C1.46442 6.09401 1.48038 5.99935 1.52029 5.94414C1.5602 5.88892 1.63203 5.8337 1.74377 5.77849C2.02313 5.6365 2.35835 5.51818 2.74944 5.42352C3.14054 5.32098 3.55557 5.27365 3.99456 5.27365C4.94435 5.27365 5.63874 5.48663 6.08571 5.91258C6.52469 6.33854 6.74817 6.98536 6.74817 7.85305V10.4088H6.76413ZM3.52365 11.6078C3.78704 11.6078 4.05841 11.5605 4.34574 11.4658C4.63308 11.3711 4.88848 11.1976 5.10398 10.961C5.23169 10.8111 5.32747 10.6454 5.37535 10.4561C5.42324 10.2668 5.45517 10.0381 5.45517 9.76986V9.43856C5.22371 9.38334 4.97628 9.33601 4.72087 9.30446C4.46546 9.27291 4.21804 9.25713 3.97061 9.25713C3.43585 9.25713 3.04476 9.35968 2.78137 9.57266C2.51798 9.78563 2.39027 10.0854 2.39027 10.4798C2.39027 10.8505 2.48605 11.1266 2.68559 11.3159C2.87715 11.5131 3.1565 11.6078 3.52365 11.6078ZM9.93279 12.4597C9.78912 12.4597 9.69334 12.436 9.62949 12.3808C9.56564 12.3335 9.50977 12.2231 9.46188 12.0732L7.58623 5.97569C7.53834 5.81793 7.5144 5.71538 7.5144 5.66017C7.5144 5.53396 7.57825 5.46296 7.70595 5.46296H8.48814C8.63979 5.46296 8.74355 5.48663 8.79942 5.54184C8.86327 5.58917 8.91116 5.69961 8.95905 5.84948L10.2999 11.0714L11.5451 5.84948C11.585 5.69172 11.6328 5.58917 11.6967 5.54184C11.7606 5.49452 11.8723 5.46296 12.016 5.46296H12.6545C12.8061 5.46296 12.9099 5.48663 12.9737 5.54184C13.0376 5.58917 13.0935 5.69961 13.1254 5.84948L14.3865 11.1345L15.7673 5.84948C15.8152 5.69172 15.871 5.58917 15.9269 5.54184C15.9907 5.49452 16.0945 5.46296 16.2382 5.46296H16.9805C17.1082 5.46296 17.18 5.52607 17.18 5.66017C17.18 5.69961 17.172 5.73905 17.164 5.78638C17.156 5.8337 17.1401 5.89681 17.1082 5.98358L15.1846 12.0811C15.1367 12.2388 15.0809 12.3414 15.017 12.3887C14.9531 12.436 14.8494 12.4676 14.7137 12.4676H14.0273C13.8756 12.4676 13.7719 12.4439 13.708 12.3887C13.6442 12.3335 13.5883 12.2309 13.5564 12.0732L12.3193 6.98536L11.0901 12.0653C11.0502 12.2231 11.0023 12.3256 10.9385 12.3808C10.8746 12.436 10.7629 12.4597 10.6192 12.4597H9.93279ZM20.189 12.6727C19.774 12.6727 19.3589 12.6253 18.9599 12.5307C18.5608 12.436 18.2495 12.3335 18.042 12.2152C17.9143 12.1442 17.8265 12.0653 17.7946 11.9943C17.7626 11.9233 17.7467 11.8444 17.7467 11.7734V11.3711C17.7467 11.2055 17.8105 11.1266 17.9303 11.1266C17.9781 11.1266 18.026 11.1345 18.0739 11.1503C18.1218 11.166 18.1936 11.1976 18.2735 11.2292C18.5448 11.3475 18.8401 11.4421 19.1514 11.5052C19.4707 11.5683 19.782 11.5999 20.1012 11.5999C20.6041 11.5999 20.9951 11.5131 21.2665 11.3396C21.5379 11.1661 21.6816 10.9136 21.6816 10.5902C21.6816 10.3694 21.6097 10.1879 21.4661 10.0381C21.3224 9.88818 21.051 9.75408 20.6599 9.62787L19.5026 9.27291C18.92 9.09148 18.489 8.82329 18.2256 8.46832C17.9622 8.12125 17.8265 7.73473 17.8265 7.32455C17.8265 6.99325 17.8983 6.70139 18.042 6.44897C18.1857 6.19656 18.3772 5.97569 18.6167 5.80215C18.8561 5.62073 19.1275 5.48663 19.4467 5.39197C19.766 5.29731 20.1012 5.25787 20.4524 5.25787C20.628 5.25787 20.8116 5.26576 20.9872 5.28943C21.1707 5.31309 21.3383 5.34464 21.506 5.37619C21.6656 5.41564 21.8172 5.45508 21.9609 5.5024C22.1046 5.54973 22.2163 5.59706 22.2961 5.64439C22.4079 5.70749 22.4877 5.7706 22.5356 5.84159C22.5835 5.9047 22.6074 5.99147 22.6074 6.1019V6.47264C22.6074 6.63829 22.5436 6.72506 22.4238 6.72506C22.36 6.72506 22.2562 6.69351 22.1205 6.6304C21.6656 6.42531 21.1548 6.32277 20.5881 6.32277C20.1331 6.32277 19.774 6.39376 19.5265 6.54363C19.2791 6.69351 19.1514 6.92226 19.1514 7.24567C19.1514 7.46654 19.2312 7.65585 19.3909 7.80573C19.5505 7.9556 19.8458 8.10547 20.2688 8.23957L21.4022 8.59453C21.9769 8.77596 22.3919 9.02838 22.6393 9.35179C22.8868 9.6752 23.0065 10.0459 23.0065 10.4561C23.0065 10.7953 22.9346 11.1029 22.799 11.3711C22.6553 11.6393 22.4637 11.876 22.2163 12.0653C21.9689 12.2625 21.6736 12.4045 21.3304 12.507C20.9712 12.6175 20.5961 12.6727 20.189 12.6727Z" fill="#252F3E"/>
<path fill-rule="evenodd" clip-rule="evenodd" d="M21.6975 16.5066C19.0716 18.4234 15.2564 19.441 11.9761 19.441C7.37871 19.441 3.23631 17.7608 0.107566 14.9685C-0.13986 14.7476 0.0836217 14.4478 0.378937 14.6214C3.76309 16.5618 7.93741 17.7372 12.2554 17.7372C15.1686 17.7372 18.3692 17.1377 21.3144 15.9071C21.7534 15.7099 22.1285 16.1911 21.6975 16.5066Z" fill="#FF9900"/>
<path fill-rule="evenodd" clip-rule="evenodd" d="M22.791 15.2761C22.4558 14.8501 20.5721 15.071 19.7181 15.1735C19.4627 15.2051 19.4228 14.9842 19.6543 14.8186C21.1548 13.7774 23.6211 14.0771 23.9084 14.4242C24.1957 14.7791 23.8286 17.2166 22.4238 18.384C22.2083 18.5654 22.0008 18.4708 22.0966 18.2341C22.4159 17.4532 23.1262 15.6942 22.791 15.2761Z" fill="#FF9900"/>
</svg>

<svg xmlns="http://www.w3.org/2000/svg" width="24" height="24" fill="none"><path fill="#252F3E" d="M6.764 10.409c0 .292.032.528.088.702.064.173.144.363.255.568a.34.34 0 0 1 .056.181q.002.12-.151.237l-.503.331a.4.4 0 0 1-.208.071c-.08 0-.16-.04-.24-.11a2.4 2.4 0 0 1-.287-.371 6 6 0 0 1-.247-.465Q4.593 12.64 3.18 12.64c-.67 0-1.205-.19-1.596-.568q-.588-.567-.59-1.514c0-.67.239-1.215.726-1.625s1.133-.616 1.955-.616c.272 0 .551.024.846.064.296.039.599.102.918.173V7.98c0-.6-.128-1.017-.375-1.262q-.38-.364-1.3-.363-.42-.002-.863.103a6.4 6.4 0 0 0-.862.268 2 2 0 0 1-.28.103.5.5 0 0 1-.127.023q-.168.002-.168-.244V6.22c0-.126.016-.22.056-.276a.6.6 0 0 1 .224-.166 4.6 4.6 0 0 1 1.005-.354c.392-.103.807-.15 1.246-.15q1.423 0 2.09.639.662.639.663 1.94v2.556zm-3.24 1.199c.263 0 .534-.048.822-.142a1.8 1.8 0 0 0 .758-.505c.128-.15.223-.316.271-.505a2.8 2.8 0 0 0 .08-.686v-.331a7 7 0 0 0-.734-.135 6 6 0 0 0-.75-.047c-.535 0-.926.103-1.19.316s-.39.512-.39.907c0 .37.095.647.295.836q.286.294.838.292m6.409.852c-.144 0-.24-.024-.304-.08-.063-.046-.12-.157-.167-.307L7.586 5.976a1.4 1.4 0 0 1-.072-.316c0-.126.064-.197.192-.197h.782q.228-.002.311.079c.064.047.112.158.16.307l1.34 5.222 1.246-5.222c.04-.157.088-.26.152-.307a.55.55 0 0 1 .319-.079h.639q.225-.002.319.079c.064.047.12.158.151.307l1.261 5.285 1.381-5.285q.074-.236.16-.307a.53.53 0 0 1 .311-.079h.742c.128 0 .2.063.2.197 0 .04-.008.079-.016.126-.008.048-.024.11-.056.198l-1.923 6.097q-.072.236-.168.308a.5.5 0 0 1-.303.079h-.687q-.225.002-.319-.08c-.064-.054-.12-.157-.152-.315L12.32 6.985l-1.229 5.08c-.04.158-.088.26-.152.316-.063.055-.175.079-.319.079zm10.256.213c-.415 0-.83-.048-1.23-.142-.398-.095-.71-.197-.917-.316-.128-.07-.216-.15-.247-.22a.55.55 0 0 1-.048-.222v-.402c0-.165.064-.244.183-.244q.072 0 .144.023c.048.016.12.048.2.08.27.117.566.212.877.275.32.063.631.095.95.095q.756 0 1.166-.26a.85.85 0 0 0 .415-.75.76.76 0 0 0-.216-.552q-.218-.223-.806-.41l-1.157-.355c-.583-.182-1.014-.45-1.277-.805a1.87 1.87 0 0 1-.4-1.143q0-.498.216-.876c.144-.252.335-.473.575-.647.24-.181.51-.315.83-.41s.654-.134 1.005-.134c.176 0 .36.008.535.031.184.024.351.056.519.087q.24.058.455.126.215.072.335.142a.7.7 0 0 1 .24.198q.07.095.071.26v.37c0 .166-.063.253-.183.253a.8.8 0 0 1-.303-.095 3.7 3.7 0 0 0-1.533-.307c-.455 0-.814.07-1.062.22-.247.15-.375.38-.375.703 0 .22.08.41.24.56s.455.3.878.434l1.133.355q.864.271 1.237.757c.248.323.367.694.367 1.104q-.002.512-.207.915a2.1 2.1 0 0 1-.583.694c-.247.197-.542.34-.886.442-.359.11-.734.166-1.141.166"/><path fill="#F90" fill-rule="evenodd" d="M21.698 16.507c-2.626 1.916-6.442 2.934-9.722 2.934-4.597 0-8.74-1.68-11.868-4.472-.248-.221-.024-.521.27-.348 3.385 1.94 7.56 3.116 11.877 3.116 2.914 0 6.114-.6 9.06-1.83.438-.197.813.284.383.6" clip-rule="evenodd"/><path fill="#F90" fill-rule="evenodd" d="M22.791 15.276c-.335-.426-2.219-.205-3.073-.102-.255.031-.295-.19-.064-.355 1.5-1.042 3.967-.742 4.254-.395.288.355-.08 2.793-1.484 3.96-.216.181-.423.087-.327-.15.319-.78 1.03-2.54.694-2.958" clip-rule="evenodd"/></svg>
